X:10
T:Ace and Deuce of Pipering, The
R:set dance
H:See also #13
D:Noel Hill & Tony McMahon: \'I gCnoc na Gra\'i
Z:id:hn-setdance-10
M:C|
K:G
dc|BGcA BGcA|BGcA B2AG|d2e^c d2ec|dfe^c dcBA|e2fd ed^cB|Adde d=cBA|
(3BcB cA B2AG|FGAB cBcA|G2ge fdcA|FGAB cAFG|AGGF G2FG|AGGF G2:|
|:GF|G2=f2 e2f2|G2=fe fdcA|G2g2 ^f2g2|d2ga gfdc|A2=f2 e2f2|d^cde fefg|
afge fde^c|d2eg fdcA|G2ge fdcA|FGAB cAFG|AGGF G2FG|AGGF G2:|
P:variations:
|:dc|(3BcB cA BdcA|BdcA BAGB|(3ded e^c d2ec|dfe^c dcBA|e2fd ed^cB|
Add^c d=cAc|BGcA B2AG|FGAB cdcA|G2eg fdcA|FGAB cAFG|AGGF G2 FG|AGGF G2:|
|:GF|G2=f2 e2f2|G=ffg fdcA|G2g2 ^f2g2|d^cdg fd=cA|=F2=f2 e2f2|d^cde fd (3efg|
agfa gfdc|BdcA B2AF|G2ge fdcA|FGAB cAFG|AGGF G2FG|AGGF G2:|
<end>
<start>
